img/sidebar-16.svg

<svg id="Layer_1" xmlns="http://www.w3.org/2000/svg" viewBox="0 0 16 16"><style>.st0{fill:#424c55}</style><path class="st0" d="M13 1H3C1.3 1 0 2.3 0 4v8c0 1.7 1.3 3 3 3h10c1.7 0 3-1.3 3-3V4c0-1.7-1.3-3-3-3zM2 12V4c0-.6.4-1 1-1h5v10H3c-.6 0-1-.4-1-1zm12 0c0 .6-.4 1-1 1H9V3h4c.6 0 1 .4 1 1v8z"/><path class="st0" d="M5.9 6.3h-2c-.3 0-.5-.3-.5-.5s.2-.5.5-.5h2c.3 0 .5.2.5.5s-.2.5-.5.5zm0 2h-2c-.3 0-.5-.3-.5-.5s.2-.5.5-.5h2c.3 0 .5.2.5.5s-.2.5-.5.5zm-1 2h-1c-.3 0-.5-.2-.5-.5s.2-.5.5-.5h1c.3 0 .5.2.5.5s-.2.5-.5.5z"/></svg>

<?xml version="1.0" encoding="utf-8"?>
<!-- Generator: Adobe Illustrator 21.1.0, SVG Export Plug-In . SVG Version: 6.00 Build 0)  -->
<svg version="1.1" id="Layer_1" xmlns="http://www.w3.org/2000/svg" xmlns:xlink="http://www.w3.org/1999/xlink" x="0px" y="0px"
	 viewBox="0 0 16 16" style="enable-background:new 0 0 16 16;" xml:space="preserve">
<style type="text/css">
	.st0{fill:#424C55;}
</style>
<path class="st0" d="M13,1H3C1.3,1,0,2.3,0,4v8c0,1.7,1.3,3,3,3h10c1.7,0,3-1.3,3-3V4C16,2.3,14.7,1,13,1z M2,12V4c0-0.6,0.4-1,1-1
	h5v10H3C2.4,13,2,12.6,2,12z M14,12c0,0.6-0.4,1-1,1H9V3h4c0.6,0,1,0.4,1,1V12z"/>
<path class="st0" d="M5.9,6.3h-2C3.6,6.3,3.4,6,3.4,5.8s0.2-0.5,0.5-0.5h2c0.3,0,0.5,0.2,0.5,0.5S6.2,6.3,5.9,6.3z M5.9,8.3h-2
	C3.6,8.3,3.4,8,3.4,7.8s0.2-0.5,0.5-0.5h2c0.3,0,0.5,0.2,0.5,0.5S6.2,8.3,5.9,8.3z M4.9,10.3h-1c-0.3,0-0.5-0.2-0.5-0.5
	s0.2-0.5,0.5-0.5h1c0.3,0,0.5,0.2,0.5,0.5S5.2,10.3,4.9,10.3z"/>
</svg>
